X: 20987
T: Julia Clifford's
R: polka
M: 2/4
K: Dmajor
|:B/|A>F AB|A>F Af|e2 ef|dB B/c/d/B/|
A>F AB|A>F Af|e/d/e/f/ gb|ef d3/2:|
|:e/|f>f g/f/e|f>f g/f/e|fd ed|e/f/e/d/ BA|
f>f g/f/e|f>f g/f/e|fd e/f/e/c/|df d3/2:|

